X:31
T: Es fliegen zwei Tauben wohl ueber den Rhein,:
N: D0032
O: Europa, Mitteleuropa, Lothringen, Weiler
N: Achttonskala ( Ionisch, modulierend in die Dominanttonart )
R: Liebes - Lied
M: 3/4
L: 1/8
K: G
D2 | G3AB2 | A2A2D2 | E2F2E2 | D4
D2 | G2A2B2 | A2A2d2 | ^c3de2 | d4
d2 | G2A2B2 | c2B2A2 | G2B2A2 | G4

@@@ Tune index: 2553
